X: 11682
P: Printed for the first time.
M: C
L: 1/8
K: A
g |\
a2(ec) defg | afec dBBg |\
a2(ec) defg | afec A2A :|\
{d}c2(cA) d2(dB) | efec dBBd |
{d}c2(cA) defg | afec A2(AB) |\
c2(cA) d2(dB) | efec dBBd |\
ceae defg | afec A2A |]


